X:1
T:Roll the Stone Away
T:Charles Howard Marsh
T:Roll the Stone Away
T:Public Domain
T:Public Domain
C:Charles Howard Marsh
Z:Public Domain
%%score ( 1 2 ) ( 3 4 )
L:1/8
M:6/8
K:F
V:1 treble 
V:2 treble 
V:3 bass 
V:4 bass 
V:1
 AAA B>BE | F2 A ([^DA] [EB]2) | AAA BBE | F2 A ([^DA] [EB]2) | cdc cGA | BAE (GF)D | GAG GAG | %7
w: 1.~Je- sus was stand- ing be-|grave, Weep- ing, *|ing His power to save; “Take|way now the *|the door,” And Christ will His|dis- play. * * * *||
w: 2.~Je- sus is speak- ing to|song, Ask- ing *|have de- layed so long? While|ly- ing in *|of sin, For whom Je- sus|the cross. They rolled * the|way, For Christ was there that|
w: 3.~Je- sus is stand- ing by|sin, Knock- ing *|ing, “Let Me come in.” Rouse,|sleep- er, and *|the door, For Je- sus has|to save. * * * *||
 (z [EG][FA] [GBc]2) ||"^Refrain" [Ec] | [Ee]2 [Ed] [EG]2 [EA] | [EB]3- [EB]2 [EB] | %11
w: ||||
w: ||up- on a man|to * leave|
w: ||||
 [Fd]2 [Fc] F2 [FG] | [FA]3- [FA]2 [FA] | [FA]2 [FG] [FG]2 [FA] | [F=B]2 [FA] [FG]2 [Fd] | %15
w: ||||
w: the dark- ened grave.|roll * the|stone a- way, For|He is here to-|
w: ||||
 [Ec]3 [^Dc]3 | [Ec]3- [Ec]2 [Ec] | [Ee]2 [Ed] [EG]2 [EA] | [EB]3- [EB]2 [EB] | %19
w: ||||
w: day, And|waits * to|show His might- y|power, * His|
w: ||||
 [Fd]2 [Fc] F2 [FG] | [FA]3- [FA]2 [_EA] | [DA]2 [DG] [Dd]2 [_DG] | [CG]2 [CF] [Cc]2 [Fd] | %23
w: ||||
w: power to save. *||||
w: ||||
 [Ed]3 [CEe]3 | [CFf]6 |] %25
w: ||
w: ||
w: ||
V:2
 [DF]3 [CE]3 | [^DF]3 c3 | [CF]3 [CE]3 | [^DF]3 c3 | [FA]3 [B,E]3 | [^CE]3 [B,D]3 | %6
w: side a|but know-|ye a-|stone from|pow- er||
w: you in|why you|men are|grave- clothes|died on|stone a-|
w: hearts of|and say-|then, ye|o- pen|pow- er||
 [=B,F]3 [B,D]3 | c3- x2 || x | x6 | x6 | x3 F2 x | x6 | x6 | x6 | x6 | x6 | x6 | x6 | x3 F2 x | %20
w: ||||||||||||||
w: day, And|called||||We’ll|||||||||
w: ||||||||||||||
 x6 | x6 | x6 | x6 | x6 |] %25
w: |||||
w: |||||
w: |||||
V:3
 [F,,F,]3 [G,,G,]3 | [A,,A,]3 ([^F,,^F,][G,,G,][C,,C,]) | [F,,F,]3 [G,,G,]3 | %3
 [A,,A,]3 ([^F,,^F,][G,,G,][C,,C,]) | [F,,F,]3 [G,,G,]3 | [A,,A,]3 [B,,B,]3 | [D,,D,]3 [G,,,G,,]3 | %7
 [C,,C,]3- [C,,C,]2 || [C,G,] | [C,G,]2 [C,G,] [C,C]2 [C,C] | [C,C]3- [C,C]2 [C,C] | %11
 [F,B,]2 [F,A,] [F,A,]2 [F,B,] | [F,C]3- [F,C]2 [F,C] | [G,C]2 [G,=B,] [G,B,]2 [G,C] | %14
 [G,D]2 [G,C] [G,=B,]2 [G,B,] | [C,G,]3 [C,^F,]3 | [C,G,]3- [C,G,]2 [C,G,] | %17
 [C,G,]2 [C,G,] [C,C]2 [C,C] | [C,C]3- [C,C]2 [C,C] | [F,B,]2 [F,A,] [F,A,]2 [F,B,] | %20
 [F,C]3- [F,C]2 F, | [B,,F,]2 [B,,F,] [B,,F,]2 [B,,F,] | [A,,F,]2 [A,,F,] [A,,F,]2 [B,,F,] | %23
 [C,B,]3 [C,B,]3 | [F,A,]6 |] %25
V:4
 x6 | x6 | x6 | x6 | x6 | x6 | x6 | x5 || x | x6 | x6 | x6 | x6 | x6 | x6 | x6 | x6 | x6 | x6 | %19
 x6 | x5 F, | x6 | x6 | x6 | x6 |] %25

